imgs/separator.svg

<svg width="599" height="22" viewBox="0 0 599 22" fill="none" xmlns="http://www.w3.org/2000/svg">
<path fill-rule="evenodd" clip-rule="evenodd" d="M596.202 3.09453C596.202 3.09462 596.198 3.09387 596.19 3.09204C596.198 3.09353 596.202 3.09445 596.202 3.09453ZM397.272 8.60584C402.126 8.40689 406.979 8.21031 411.833 8.01668C411.913 8.01345 412.82 7.97636 414.437 7.91021C434.152 7.10356 559.459 1.97661 580.638 1.25945C581.841 1.21873 583.649 1.04357 585.709 0.826319C586.159 0.778905 586.619 0.729664 587.083 0.679917C588.705 0.506342 590.384 0.326596 591.879 0.196742C593.712 0.0374283 595.573 -0.0790057 596.724 0.0661688C597.02 0.10349 597.454 0.177841 597.864 0.366069C598.31 0.570821 598.983 1.0497 599 1.87016C599.013 2.53529 598.563 3.00076 598.343 3.20183C598.077 3.44507 597.748 3.6563 597.426 3.83846C594.45 5.52113 590.947 5.82148 587.702 5.82038C586.457 5.81995 585.18 5.77325 583.956 5.72847C583.584 5.71487 583.217 5.70144 582.857 5.68955C581.277 5.63733 579.796 5.61237 578.403 5.69982C561.223 6.77849 544.025 7.73508 526.811 8.48438C505.7 9.40324 479.143 10.1613 449.242 10.7846C449.234 10.8361 449.224 10.8864 449.212 10.935C449.016 11.7274 448.593 12.423 447.924 12.9766C447.265 13.5227 446.461 13.8518 445.647 14.0437C444.088 14.4114 442.254 14.3281 440.575 14.149C439.277 14.0105 437.881 13.7896 436.565 13.5815C436.152 13.516 435.746 13.4518 435.354 13.3919C433.639 13.1297 432.172 12.9459 431.019 12.9578C418.379 13.0879 386.118 13.0694 370.272 13.0604C367.717 13.0589 365.589 13.0577 364.038 13.0574C355.702 13.4123 347.364 13.7704 339.025 14.1284C247.453 18.0603 155.7 22 64.0097 22C62.9651 22 62.1183 21.3161 62.1183 20.4724C62.1183 19.6287 62.9651 18.9448 64.0097 18.9448C138.376 18.9448 212.771 16.3507 287.137 13.2705C238.609 13.5414 190.099 14.0691 141.553 14.8455C140.563 14.8614 139.735 14.2592 139.635 13.4773C86.1571 13.5524 42.2334 13.4619 19.1171 13.346C12.7027 13.3138 7.88581 13.2797 4.91046 13.2465C3.42903 13.23 2.38522 13.2135 1.82836 13.1971C1.68962 13.193 1.56478 13.1885 1.46486 13.1831C1.41787 13.1806 1.35349 13.1767 1.28693 13.1704C1.25098 13.1669 1.17479 13.1577 1.12663 13.1506C1.04078 13.1359 0.758425 13.063 0.565901 12.9891C-0.0935573 12.5079 -0.240278 10.9906 0.468138 10.3492C0.69285 10.2519 1.02216 10.1599 1.11773 10.1429C1.24019 10.1235 1.3507 10.1163 1.38459 10.1141L1.38721 10.1139C1.48749 10.1073 1.61063 10.1028 1.73441 10.0992C3.6967 10.0418 13.9997 10.0021 34.4835 10.0021C45.697 10.0021 56.9102 10.0038 68.1233 10.0055C139.42 10.0162 210.709 10.0269 281.997 9.60467C321.894 9.36839 333.164 9.24455 348.65 9.07439C359.213 8.95831 371.739 8.82067 396.651 8.61108C396.858 8.60934 397.065 8.60759 397.272 8.60584Z" fill="#F67ACB"/>
</svg>

<svg xmlns="http://www.w3.org/2000/svg" width="599" height="22" fill="none"><path fill="#F67ACB" fill-rule="evenodd" d="M397.272 8.605q7.28-.298 14.561-.588l2.604-.107c19.715-.806 145.022-5.933 166.201-6.65 1.203-.041 3.011-.216 5.071-.434l1.374-.146c1.622-.174 3.301-.353 4.796-.483 1.833-.16 3.694-.276 4.845-.13.296.036.73.11 1.14.3.446.204 1.119.683 1.136 1.503.013.665-.437 1.13-.657 1.332a5 5 0 0 1-.917.636c-2.976 1.683-6.479 1.983-9.724 1.982-1.245 0-2.522-.047-3.746-.092q-.558-.02-1.099-.038c-1.58-.053-3.061-.078-4.454.01-17.18 1.078-34.378 2.035-51.592 2.784-21.111.92-47.668 1.677-77.569 2.3a2 2 0 0 1-.03.151 3.78 3.78 0 0 1-1.288 2.042c-.659.546-1.463.875-2.277 1.067-1.559.367-3.393.284-5.072.105-1.298-.138-2.694-.36-4.01-.567q-.621-.1-1.211-.19c-1.715-.262-3.182-.446-4.335-.434-12.64.13-44.901.111-60.747.102l-6.234-.003q-12.504.533-25.013 1.071C247.453 18.06 155.7 22 64.01 22c-1.045 0-1.892-.684-1.892-1.528 0-.843.847-1.527 1.892-1.527 74.366 0 148.761-2.594 223.127-5.674a13984 13984 0 0 0-145.584 1.574c-.99.016-1.818-.586-1.918-1.368-53.478.075-97.402-.015-120.518-.131-6.414-.032-11.231-.066-14.207-.1a204 204 0 0 1-3.082-.049 16 16 0 0 1-.363-.014 4 4 0 0 1-.338-.032 4 4 0 0 1-.561-.162c-.66-.481-.806-1.998-.098-2.64.225-.097.554-.19.65-.206.122-.02.233-.027.267-.029h.002c.1-.007.224-.011.347-.015 1.963-.057 12.266-.097 32.75-.097l33.64.003c71.296.011 142.585.022 213.873-.4 39.897-.237 51.167-.36 66.653-.53 10.563-.117 23.089-.254 48.001-.464z" clip-rule="evenodd"/></svg>
